!!!COM: Edouard Lalo
!!!CNT: Francais
!!!TXO: Francais
!!!OTL: Chanson de Barberine
!!!OPR: Six Me/lodies pour voix de contralto
!!!ONM: No. 2
!!!LYR: Alfred de Musset
!!!ENC: Jacob Pegg
!!!YOR: Romantic French Song 1830-1870, David Tunley, ed., New !!!YOR: York: Garland Publishing, Inc., 1995, vol. 3
!!!ODT: 1870/
!!NB: Vocal melody and text only encoded.
!!NB: First instance of melodic material only encoded.
**kern	**silbe
*clef G2	*
*k[f#c#g#d#]	*
*M6/8	*
=8	=8
4r	.
8r	.
{8B	{Beau
8C#	che-
8G	-va-
=9	=9
8B	-lier
8e	qui
8B	par-
8f#	-tez
8g#	pour
8a	la
=10	=10
[8b	guerre,
16b]}	|}
16r	.
{8b	{Qu'al-
4b	-lez~
8cc#	~vous
=11	=11
[8a	fai-
16a]}	-re}
16r	.
{8g#	{Si
4g#	loin
8a	d'i-
=12	=12
2.f#;}	-ci?}
=13	=13
4r	.
{8f#	{Voy-
(8f#	-ez~
8b)	|
8b	~vous
=14	=14
8b	pas
8g#	que
8e	la
8e	nuit
8g#	est
8cc#	pro-
=15	=15
[8cc#	-fon-
16cc#]}	-de,}
16r	.
{8c#	{Et
(8d#	que
8e)	|
8f#	le
=16	=16
4f#	mon-
8e	-de
8g#	n'est
8.f#	que
16e	sou-
=17	=17
2.e}	-ci?}
=18	=18
*M2/4	*
8r	.
{8e	{Vous
8e	qui
8f#	croy-
=19	=19
4.f#	-ez
8f#	qu'une
=20	=20
8f#	a-
8g#	-mour
8a	de/-
8b	-lais-
=21	=21
[2b	-se/-
=22	=22
8b]}	-e}
{8a	{De
8a	la
8e	pen-
=23	=23
(8e	-se/-
eq)	-e
8f#	s'en
[4f#	fuit
=24	=24
4.f#]	|
8dn	ain-
=25	=25
[2c#	-si,
=26	=26
16c#]}	|}
16r	.
{8c#	{He/-
(8c#	-las!
8cc#)	he/-
=27	=27
4.cc#	-las!
8b	cher-
=28	=28
8a	-cheurs
8g#	de
8a	re-
8f#	-nom-
=29	=29
[2e	-me/-
=30	=30
16e]}	-e,}
16r	.
{8e	{vo-
8e	-tre
8a	fu-
=31	=31
[8a	-me/-
aq]	-e
8d	s'en-
[4d	-vo-
=32	=32
4.d]	|
8g#	-le aus-
=33	=33
[2g#	-si.
=34	=34
8g#]}	|}
8r	.
4r	.
!!3 meas. rest
!!mm. 38 - end at 47 - verbatim recap of mm. 8-18
*-	*-
